;Generated by Cura LulzBot Edition GCodeWriter Version: 3.6.21
;FLAVOR:Marlin
;TIME:3873
;Filament used: 2.38856m
;Layer height: 0.25
;Generated with Cura_SteamEngine 3.6.21
M82 ;absolute extrusion mode
;This G-Code has been generated specifically for the LulzBot Mini with standard extruder
M73 P0 ; clear GLCD progress bar
M75 ; Start GLCD Timer
G26 ; clear potential 'probe fail' condition
M107 ; disable fans
M420 S0 ; disable leveling matrix
G90 ; absolute positioning
M82 ; set extruder to absolute mode
G92 E0 ; set extruder position to 0
M140 S60.0 ; start bed heating up
G28 ; home all axes
G1 Y187 F4000
G0 X0 Y187 Z156 F200 ; move away from endstops
M109 R145 ;
G1 E-25 F75 ; retract filament
M109 R140 ; wait for extruder to reach wiping temp
G1 X45 Y173 F4000 ; move above wiper pad
G1 Z0 F1200 ; push nozzle into wiper
G1 X42 Y173 Z-.5 F4000             ; wiping
G1 X52 Y171 Z-.5 F4000             ; wiping
G1 X42 Y173 Z0 F4000               ; wiping
G1 X52 Y171 F4000                  ; wiping
G1 X42 Y173 F4000                  ; wiping
G1 X52 Y171 F4000                  ; wiping
G1 X42 Y173 F4000                  ; wiping
G1 X52 Y171 F4000                  ; wiping
G1 X57 Y173 F4000                  ; wiping
G1 X77 Y171 F4000                  ; wiping
G1 X57 Y173 F4000                  ; wiping
G1 X77 Y171 F4000                  ; wiping
G1 X57 Y173 F4000                  ; wiping
G1 X87 Y171 F4000                  ; wiping
G1 X77 Y173 F4000                  ; wiping
G1 X97 Y171 F4000                  ; wiping
G1 X77 Y173 F4000                  ; wiping
G1 X97 Y171 F4000                  ; wiping
G1 X77 Y173 F4000                  ; wiping
G1 X97 Y171 F4000                  ; wiping
G1 X107 Y173 F4000                 ; wiping
G1 X97 Y171 F4000                  ; wiping
G1 X107 Y173 F4000                 ; wiping
G1 X97 Y171 F4000                  ; wiping
G1 X107 Y173 F4000                 ; wiping
G1 X112 Y171 Z-0.5 F1000           ; wiping
G1 Z10 ; raise extruder
G28 X0 Y0 ; home X and Y
G0 X0 Y187 F4000 ; move away from endstops
M109 R140 ; wait for extruder to reach probe temp
M204 S300 ; set probing acceleration
G29       ; start auto-leveling sequence
M420 S1   ; enable leveling matrix
M425 Z	  ; use measured Z backlash for compensation
M425 Z F0 ; turn off measured Z backlash compensation. (if activated in the quality settings, this command will automatically be ignored)
M204 S2000 ; restore standard acceleration
G28 X0 Y0 ; re-home to account for build variance of earlier mini builds
G0 X0 Y187 F4000 ; move away from endstops
G0 Y152 F4000 ; move in front of wiper pad
G4 S1 ; pause
M400 ; wait for moves to finish
M109 R200  ; wait for extruder to reach printing temp
M190 R60.0 ; wait for bed to reach printing temp
G1 Z2 E0 F75 ; prime tiny bit of filament into the nozzle
M221 S100 T0
G92 E0
G1 F600 E-0.5
;LAYER_COUNT:46
;LAYER:0
M107
M203 Z420
G0 F2925 X25.531 Y53.115 Z0.425
;TYPE:SKIRT
G1 F600 E0
G1 F1800 X26.001 Y52.919 E0.01696
G1 X26.496 Y52.8 E0.03392
G1 X27.009 Y52.759 E0.05106
G1 X126.991 Y52.76 E3.3815
G1 X127.499 Y52.8 E3.39847
G1 X127.994 Y52.919 E3.41543
G1 X128.465 Y53.114 E3.43241
G1 X128.9 Y53.38 E3.4494
G1 X129.287 Y53.71 E3.46634
G1 X129.619 Y54.097 E3.48332
G1 X129.885 Y54.532 E3.50031
G1 X130.081 Y55.002 E3.51727
G1 X130.2 Y55.497 E3.53423
G1 X130.241 Y56.01 E3.55137
G1 X130.241 Y97.991 E4.94977
G1 X130.201 Y98.499 E4.96675
G1 X130.082 Y98.994 E4.98371
G1 X129.887 Y99.465 E5.00069
G1 X129.621 Y99.9 E5.01767
G1 X129.291 Y100.287 E5.03461
G1 X128.904 Y100.619 E5.0516
G1 X128.469 Y100.885 E5.06858
G1 X127.999 Y101.081 E5.08555
G1 X127.504 Y101.2 E5.1025
G1 X126.991 Y101.241 E5.11965
G1 X27.009 Y101.241 E8.45008
G1 X26.501 Y101.201 E8.46706
G1 X26.006 Y101.082 E8.48402
G1 X25.535 Y100.887 E8.501
G1 X25.1 Y100.621 E8.51798
G1 X24.713 Y100.291 E8.53492
G1 X24.381 Y99.904 E8.55191
G1 X24.115 Y99.469 E8.56889
G1 X23.919 Y98.999 E8.58585
G1 X23.8 Y98.504 E8.60281
G1 X23.759 Y97.991 E8.61995
G1 X23.759 Y56.009 E10.01839
G1 X23.799 Y55.501 E10.03536
G1 X23.918 Y55.006 E10.05232
G1 X24.113 Y54.535 E10.0693
G1 X24.379 Y54.1 E10.08629
G1 X24.709 Y53.713 E10.10323
G1 X25.096 Y53.381 E10.12021
G1 X25.531 Y53.115 E10.1372
G1 F600 E9.6372
;MESH:
G0 F2925 X27.764 Y55.335
G0 X27.764 Y56.764
G0 X125.25 Y96.25
;TYPE:WALL-INNER
G1 F600 E10.1372
G1 F1800 X28.75 Y96.25 E13.35165
G1 X28.75 Y57.75 E14.6341
G1 X125.25 Y57.75 E17.84855
G1 X125.25 Y96.25 E19.131
G0 F2925 X125.75 Y96.75
G1 F1800 X28.25 Y96.75 E22.37876
G1 X28.25 Y57.25 E23.69452
G1 X125.75 Y57.25 E26.94228
G1 X125.75 Y96.75 E28.25803
G0 F2925 X126.25 Y97.25
G1 F1800 X27.75 Y97.25 E31.53911
G1 X27.75 Y56.75 E32.88817
G1 X126.25 Y56.75 E36.16925
G1 X126.25 Y97.25 E37.51831
G0 F2925 X126.75 Y97.75
;TYPE:WALL-OUTER
G1 F1800 X27.25 Y97.75 E40.8327
G1 X27.25 Y56.25 E42.21508
G1 X126.75 Y56.25 E45.52946
G1 X126.75 Y97.75 E46.91184
G0 F2925 X126.5 Y97.75
G0 X126.18 Y97.18
G0 X124.76 Y95.76
;TYPE:SKIN
G1 F1800 X29.24 Y95.76 E50.09364
G1 X29.24 Y58.24 E51.34345
G1 X124.76 Y58.24 E54.52525
G1 X124.76 Y95.76 E55.77506
G0 F2925 X124.534 Y58.773
G1 F1800 X124.225 Y58.465 E55.78959
G0 F2925 X123.518 Y58.465
G1 F1800 X124.534 Y59.48 E55.83743
G0 F2925 X124.534 Y60.187
G1 F1800 X122.811 Y58.465 E55.91857
G0 F2925 X122.104 Y58.465
G1 F1800 X124.534 Y60.894 E56.03302
G0 F2925 X124.534 Y61.601
G1 F1800 X121.397 Y58.465 E56.18077
G0 F2925 X120.69 Y58.465
G1 F1800 X124.534 Y62.308 E56.36183
G0 F2925 X124.534 Y63.015
G1 F1800 X119.983 Y58.465 E56.5762
G0 F2925 X119.276 Y58.465
G1 F1800 X124.534 Y63.723 E56.82389
G0 F2925 X124.534 Y64.43
G1 F1800 X118.569 Y58.465 E57.10489
G0 F2925 X117.861 Y58.465
G1 F1800 X124.534 Y65.137 E57.41922
G0 F2925 X124.534 Y65.844
G1 F1800 X117.154 Y58.465 E57.76685
G0 F2925 X116.447 Y58.465
G1 F1800 X124.534 Y66.551 E58.14779
G0 F2925 X124.534 Y67.258
G1 F1800 X115.74 Y58.465 E58.56204
G0 F2925 X115.033 Y58.465
G1 F1800 X124.534 Y67.965 E59.00958
G0 F2925 X124.534 Y68.672
G1 F1800 X114.326 Y58.465 E59.49044
G0 F2925 X113.619 Y58.465
G1 F1800 X124.534 Y69.379 E60.0046
G0 F2925 X124.534 Y70.087
G1 F1800 X112.912 Y58.465 E60.55209
G0 F2925 X112.205 Y58.465
G1 F1800 X124.534 Y70.794 E61.13288
G0 F2925 X124.534 Y71.501
G1 F1800 X111.498 Y58.465 E61.74698
G0 F2925 X110.79 Y58.465
G1 F1800 X124.534 Y72.208 E62.39441
G0 F2925 X124.534 Y72.915
G1 F1800 X110.083 Y58.465 E63.07514
G0 F2925 X109.376 Y58.465
G1 F1800 X124.534 Y73.622 E63.78918
G0 F2925 X124.534 Y74.329
G1 F1800 X108.669 Y58.465 E64.53653
G0 F2925 X107.962 Y58.465
G1 F1800 X124.534 Y75.036 E65.31718
G0 F2925 X124.534 Y75.743
G1 F1800 X107.255 Y58.465 E66.13113
G0 F2925 X106.548 Y58.465
G1 F1800 X124.534 Y76.45 E66.97839
G0 F2925 X124.534 Y77.158
G1 F1800 X105.841 Y58.465 E67.85898
G0 F2925 X105.134 Y58.465
G1 F1800 X124.534 Y77.865 E68.77287
G0 F2925 X124.534 Y78.572
G1 F1800 X104.426 Y58.465 E69.7201
G0 F2925 X103.719 Y58.465
G1 F1800 X124.534 Y79.279 E70.70063
G0 F2925 X124.534 Y79.986
G1 F1800 X103.012 Y58.465 E71.71446
G0 F2925 X102.305 Y58.465
G1 F1800 X124.534 Y80.693 E72.7616
G0 F2925 X124.534 Y81.4
G1 F1800 X101.598 Y58.465 E73.84204
G0 F2925 X100.891 Y58.465
G1 F1800 X124.534 Y82.107 E74.95579
G0 F2925 X124.534 Y82.814
G1 F1800 X100.184 Y58.465 E76.10285
G0 F2925 X99.477 Y58.465
G1 F1800 X124.534 Y83.522 E77.28323
G0 F2925 X124.534 Y84.229
G1 F1800 X98.77 Y58.465 E78.49692
G0 F2925 X98.062 Y58.465
G1 F1800 X124.534 Y84.936 E79.74394
G0 F2925 X124.534 Y85.643
G1 F1800 X97.355 Y58.465 E81.02427
G0 F2925 X96.648 Y58.465
G1 F1800 X124.534 Y86.35 E82.3379
G0 F2925 X124.534 Y87.057
G1 F1800 X95.941 Y58.465 E83.68483
G0 F2925 X95.234 Y58.465
G1 F1800 X124.534 Y87.764 E85.06507
G0 F2925 X124.534 Y88.471
G1 F1800 X94.527 Y58.465 E86.47861
G0 F2925 X93.82 Y58.465
G1 F1800 X124.534 Y89.178 E87.92547
G0 F2925 X124.534 Y89.885
G1 F1800 X93.113 Y58.465 E89.40562
G0 F2925 X92.406 Y58.465
G1 F1800 X124.534 Y90.593 E90.91911
G0 F2925 X124.534 Y91.3
G1 F1800 X91.699 Y58.465 E92.4659
G0 F2925 X90.991 Y58.465
G1 F1800 X124.534 Y92.007 E94.04601
G0 F2925 X124.534 Y92.714
G1 F1800 X90.284 Y58.465 E95.65944
G0 F2925 X89.577 Y58.465
G1 F1800 X124.534 Y93.421 E97.30617
G0 F2925 X124.534 Y94.128
G1 F1800 X88.87 Y58.465 E98.9862
G0 F2925 X88.163 Y58.465
G1 F1800 X124.534 Y94.835 E100.69954
G0 F2925 X124.525 Y95.534
G1 F1800 X87.456 Y58.465 E102.44579
G0 F2925 X86.749 Y58.465
G1 F1800 X123.818 Y95.534 E104.19203
G0 F2925 X123.111 Y95.534
G1 F1800 X86.042 Y58.465 E105.93828
G0 F2925 X85.335 Y58.465
G1 F1800 X122.404 Y95.534 E107.68452
G0 F2925 X121.697 Y95.534
G1 F1800 X84.627 Y58.465 E109.43079
G0 F2925 X83.92 Y58.465
G1 F1800 X120.99 Y95.534 E111.17706
G0 F2925 X120.283 Y95.534
G1 F1800 X83.213 Y58.465 E112.92333
G0 F2925 X82.506 Y58.465
G1 F1800 X119.575 Y95.534 E114.66957
G0 F2925 X118.868 Y95.534
G1 F1800 X81.799 Y58.465 E116.41582
G0 F2925 X81.092 Y58.465
G1 F1800 X118.161 Y95.534 E118.16206
G0 F2925 X117.454 Y95.534
G1 F1800 X80.385 Y58.465 E119.90831
G0 F2925 X79.678 Y58.465
G1 F1800 X116.747 Y95.534 E121.65456
G0 F2925 X116.04 Y95.534
G1 F1800 X78.971 Y58.465 E123.4008
G0 F2925 X78.263 Y58.465
G1 F1800 X115.333 Y95.534 E125.14707
G0 F2925 X114.626 Y95.534
G1 F1800 X77.556 Y58.465 E126.89334
G0 F2925 X76.849 Y58.465
G1 F1800 X113.919 Y95.534 E128.63961
G0 F2925 X113.212 Y95.534
G1 F1800 X76.142 Y58.465 E130.38587
G0 F2925 X75.435 Y58.465
G1 F1800 X112.504 Y95.534 E132.13212
G0 F2925 X111.797 Y95.534
G1 F1800 X74.728 Y58.465 E133.87837
G0 F2925 X74.021 Y58.465
G1 F1800 X111.09 Y95.534 E135.62461
G0 F2925 X110.383 Y95.534
G1 F1800 X73.314 Y58.465 E137.37086
G0 F2925 X72.607 Y58.465
G1 F1800 X109.676 Y95.534 E139.1171
G0 F2925 X108.969 Y95.534
G1 F1800 X71.9 Y58.465 E140.86335
G0 F2925 X71.192 Y58.465
G1 F1800 X108.262 Y95.534 E142.60961
G0 F2925 X107.555 Y95.534
G1 F1800 X70.485 Y58.465 E144.35588
G0 F2925 X69.778 Y58.465
G1 F1800 X106.848 Y95.534 E146.10215
G0 F2925 X106.14 Y95.534
G1 F1800 X69.071 Y58.465 E147.8484
G0 F2925 X68.364 Y58.465
G1 F1800 X105.433 Y95.534 E149.59464
G0 F2925 X104.726 Y95.534
G1 F1800 X67.657 Y58.465 E151.34089
G0 F2925 X66.95 Y58.465
G1 F1800 X104.019 Y95.534 E153.08713
G0 F2925 X103.312 Y95.534
G1 F1800 X66.243 Y58.465 E154.83338
G0 F2925 X65.536 Y58.465
G1 F1800 X102.605 Y95.534 E156.57962
G0 F2925 X101.898 Y95.534
G1 F1800 X64.828 Y58.465 E158.32589
G0 F2925 X64.121 Y58.465
G1 F1800 X101.191 Y95.534 E160.07216
G0 F2925 X100.484 Y95.534
G1 F1800 X63.414 Y58.465 E161.81843
G0 F2925 X62.707 Y58.465
G1 F1800 X99.777 Y95.534 E163.5647
G0 F2925 X99.069 Y95.534
G1 F1800 X62 Y58.465 E165.31094
G0 F2925 X61.293 Y58.465
G1 F1800 X98.362 Y95.534 E167.05719
G0 F2925 X97.655 Y95.534
G1 F1800 X60.586 Y58.465 E168.80343
G0 F2925 X59.879 Y58.465
G1 F1800 X96.948 Y95.534 E170.54968
G0 F2925 X96.241 Y95.534
G1 F1800 X59.172 Y58.465 E172.29592
G0 F2925 X58.465 Y58.465
G1 F1800 X95.534 Y95.534 E174.04217
G0 F2925 X94.827 Y95.534
G1 F1800 X57.757 Y58.465 E175.78844
G0 F2925 X57.05 Y58.465
G1 F1800 X94.12 Y95.534 E177.5347
G0 F2925 X93.413 Y95.534
G1 F1800 X56.343 Y58.465 E179.28097
G0 F2925 X55.636 Y58.465
G1 F1800 X92.705 Y95.534 E181.02722
G0 F2925 X91.998 Y95.534
G1 F1800 X54.929 Y58.465 E182.77346
G0 F2925 X54.222 Y58.465
G1 F1800 X91.291 Y95.534 E184.51971
G0 F2925 X90.584 Y95.534
G1 F1800 X53.515 Y58.465 E186.26595
G0 F2925 X52.808 Y58.465
G1 F1800 X89.877 Y95.534 E188.0122
G0 F2925 X89.17 Y95.534
G1 F1800 X52.101 Y58.465 E189.75844
G0 F2925 X51.393 Y58.465
G1 F1800 X88.463 Y95.534 E191.50471
G0 F2925 X87.756 Y95.534
G1 F1800 X50.686 Y58.465 E193.25098
G0 F2925 X49.979 Y58.465
G1 F1800 X87.049 Y95.534 E194.99725
G0 F2925 X86.341 Y95.534
G1 F1800 X49.272 Y58.465 E196.74349
G0 F2925 X48.565 Y58.465
G1 F1800 X85.634 Y95.534 E198.48974
G0 F2925 X84.927 Y95.534
G1 F1800 X47.858 Y58.465 E200.23599
G0 F2925 X47.151 Y58.465
G1 F1800 X84.22 Y95.534 E201.98223
G0 F2925 X83.513 Y95.534
G1 F1800 X46.444 Y58.465 E203.72848
G0 F2925 X45.737 Y58.465
G1 F1800 X82.806 Y95.534 E205.47472
G0 F2925 X82.099 Y95.534
G1 F1800 X45.029 Y58.465 E207.22099
G0 F2925 X44.322 Y58.465
G1 F1800 X81.392 Y95.534 E208.96726
G0 F2925 X80.685 Y95.534
G1 F1800 X43.615 Y58.465 E210.71353
G0 F2925 X42.908 Y58.465
G1 F1800 X79.978 Y95.534 E212.4598
G0 F2925 X79.27 Y95.534
G1 F1800 X42.201 Y58.465 E214.20604
G0 F2925 X41.494 Y58.465
G1 F1800 X78.563 Y95.534 E215.95229
G0 F2925 X77.856 Y95.534
G1 F1800 X40.787 Y58.465 E217.69853
G0 F2925 X40.08 Y58.465
G1 F1800 X77.149 Y95.534 E219.44478
G0 F2925 X76.442 Y95.534
G1 F1800 X39.373 Y58.465 E221.19102
G0 F2925 X38.666 Y58.465
G1 F1800 X75.735 Y95.534 E222.93727
G0 F2925 X75.028 Y95.534
G1 F1800 X37.958 Y58.465 E224.68353
G0 F2925 X37.251 Y58.465
G1 F1800 X74.321 Y95.534 E226.4298
G0 F2925 X73.614 Y95.534
G1 F1800 X36.544 Y58.465 E228.17607
G0 F2925 X35.837 Y58.465
G1 F1800 X72.906 Y95.534 E229.92232
G0 F2925 X72.199 Y95.534
G1 F1800 X35.13 Y58.465 E231.66856
G0 F2925 X34.423 Y58.465
G1 F1800 X71.492 Y95.534 E233.41481
G0 F2925 X70.785 Y95.534
G1 F1800 X33.716 Y58.465 E235.16105
G0 F2925 X33.009 Y58.465
G1 F1800 X70.078 Y95.534 E236.9073
G0 F2925 X69.371 Y95.534
G1 F1800 X32.302 Y58.465 E238.65354
G0 F2925 X31.594 Y58.465
G1 F1800 X68.664 Y95.534 E240.39981
G0 F2925 X67.957 Y95.534
G1 F1800 X30.887 Y58.465 E242.14608
G0 F2925 X30.18 Y58.465
G1 F1800 X67.25 Y95.534 E243.89235
G0 F2925 X66.542 Y95.534
G1 F1800 X29.473 Y58.465 E245.63859
G0 F2925 X29.464 Y59.162
G1 F1800 X65.835 Y95.534 E247.35198
G0 F2925 X65.128 Y95.534
G1 F1800 X29.464 Y59.87 E249.03204
G0 F2925 X29.464 Y60.577
G1 F1800 X64.421 Y95.534 E250.67879
G0 F2925 X63.714 Y95.534
G1 F1800 X29.464 Y61.284 E252.29224
G0 F2925 X29.464 Y61.991
G1 F1800 X63.007 Y95.534 E253.87238
G0 F2925 X62.3 Y95.534
G1 F1800 X29.464 Y62.698 E255.41922
G0 F2925 X29.464 Y63.405
G1 F1800 X61.593 Y95.534 E256.93275
G0 F2925 X60.886 Y95.534
G1 F1800 X29.464 Y64.112 E258.41298
G0 F2925 X29.464 Y64.819
G1 F1800 X60.179 Y95.534 E259.8599
G0 F2925 X59.471 Y95.534
G1 F1800 X29.464 Y65.526 E261.27349
G0 F2925 X29.464 Y66.233
G1 F1800 X58.764 Y95.534 E262.65378
G0 F2925 X58.057 Y95.534
G1 F1800 X29.464 Y66.941 E264.00074
G0 F2925 X29.464 Y67.648
G1 F1800 X57.35 Y95.534 E265.31439
G0 F2925 X56.643 Y95.534
G1 F1800 X29.464 Y68.355 E266.59474
G0 F2925 X29.464 Y69.062
G1 F1800 X55.936 Y95.534 E267.84178
G0 F2925 X55.229 Y95.534
G1 F1800 X29.464 Y69.769 E269.05551
G0 F2925 X29.464 Y70.476
G1 F1800 X54.522 Y95.534 E270.23595
G0 F2925 X53.815 Y95.534
G1 F1800 X29.464 Y71.183 E271.38307
G0 F2925 X29.464 Y71.89
G1 F1800 X53.107 Y95.534 E272.49687
G0 F2925 X52.4 Y95.534
G1 F1800 X29.464 Y72.597 E273.57736
G0 F2925 X29.464 Y73.305
G1 F1800 X51.693 Y95.534 E274.62452
G0 F2925 X50.986 Y95.534
G1 F1800 X29.464 Y74.012 E275.63838
G0 F2925 X29.464 Y74.719
G1 F1800 X50.279 Y95.534 E276.61893
G0 F2925 X49.572 Y95.534
G1 F1800 X29.464 Y75.426 E277.56618
G0 F2925 X29.464 Y76.133
G1 F1800 X48.865 Y95.534 E278.48012
G0 F2925 X48.158 Y95.534
G1 F1800 X29.464 Y76.84 E279.36076
G0 F2925 X29.464 Y77.547
G1 F1800 X47.451 Y95.534 E280.20809
G0 F2925 X46.744 Y95.534
G1 F1800 X29.464 Y78.254 E281.02211
G0 F2925 X29.464 Y78.961
G1 F1800 X46.036 Y95.534 E281.80281
G0 F2925 X45.329 Y95.534
G1 F1800 X29.464 Y79.669 E282.55018
G0 F2925 X29.464 Y80.376
G1 F1800 X44.622 Y95.534 E283.26424
G0 F2925 X43.915 Y95.534
G1 F1800 X29.464 Y81.083 E283.945
G0 F2925 X29.464 Y81.79
G1 F1800 X43.208 Y95.534 E284.59245
G0 F2925 X42.501 Y95.534
G1 F1800 X29.464 Y82.497 E285.2066
G0 F2925 X29.464 Y83.204
G1 F1800 X41.794 Y95.534 E285.78744
G0 F2925 X41.087 Y95.534
G1 F1800 X29.464 Y83.911 E286.33497
G0 F2925 X29.464 Y84.618
G1 F1800 X40.38 Y95.534 E286.84921
G0 F2925 X39.672 Y95.534
G1 F1800 X29.464 Y85.325 E287.33011
G0 F2925 X29.464 Y86.032
G1 F1800 X38.965 Y95.534 E287.7777
G0 F2925 X38.258 Y95.534
G1 F1800 X29.464 Y86.74 E288.19197
G0 F2925 X29.464 Y87.447
G1 F1800 X37.551 Y95.534 E288.57293
G0 F2925 X36.844 Y95.534
G1 F1800 X29.464 Y88.154 E288.92059
G0 F2925 X29.464 Y88.861
G1 F1800 X36.137 Y95.534 E289.23494
G0 F2925 X35.43 Y95.534
G1 F1800 X29.464 Y89.568 E289.51599
